svg/icon-wnyc-translate.svg

<svg viewBox="0 0 24 24" xmlns="http://www.w3.org/2000/svg" fill="none" stroke="currentColor" stroke-width="2" stroke-linecap="round" stroke-linejoin="round"><path d="M3 16c1.5-.833 5-3.5 7-6.5S11.5 4 11.5 4m3 0h-6m-6 0h6m0 0V2.5M4.5 7c1 3 3 5.5 5.5 7.5m2 6.5l1.35-3M21 21l-1.35-3m-6.3 0l3.15-7.5c1.23 2.734 1.92 4.766 3.15 7.5m-6.3 0h6.3"/></svg>

<svg viewBox="0 0 24 24" xmlns="http://www.w3.org/2000/svg" fill="none" stroke="currentColor" stroke-width="2" stroke-linecap="round" stroke-linejoin="round"><path d="M3 16C4.5 15.1667 8 12.5 10 9.5C12 6.5 11.5 4 11.5 4M14.5 4H8.5M2.5 4H8.5M8.5 4V2.5M4.5 7C5.5 10 7.5 12.5 10 14.5M12 21L13.35 18M21 21L19.65 18M13.35 18L16.5 10.5C17.7302 13.2337 18.4198 15.2663 19.65 18M13.35 18H19.65"/></svg>
